svg/sport/riding_line.svg

<?xml version="1.0" encoding="UTF-8"?>
<svg width="24px" height="24px" viewBox="0 0 24 24" version="1.1" xmlns="http://www.w3.org/2000/svg" xmlns:xlink="http://www.w3.org/1999/xlink">
    <title>riding_line</title>
    <g id="页面-1" stroke="none" stroke-width="1" fill="none" fill-rule="evenodd">
        <g id="Transport" transform="translate(-720.000000, 0.000000)" fill-rule="nonzero">
            <g id="riding_line" transform="translate(720.000000, 0.000000)">
                 <path d="M24,0 L24,24 L0,24 L0,0 L24,0 Z M12.5934901,23.257841 L12.5819402,23.2595131 L12.5108777,23.2950439 L12.4918791,23.2987469 L12.4918791,23.2987469 L12.4767152,23.2950439 L12.4056548,23.2595131 C12.3958229,23.2563662 12.3870493,23.2590235 12.3821421,23.2649074 L12.3780323,23.275831 L12.360941,23.7031097 L12.3658947,23.7234994 L12.3769048,23.7357139 L12.4804777,23.8096931 L12.4953491,23.8136134 L12.4953491,23.8136134 L12.5071152,23.8096931 L12.6106902,23.7357139 L12.6232938,23.7196733 L12.6232938,23.7196733 L12.6266527,23.7031097 L12.609561,23.275831 C12.6075724,23.2657013 12.6010112,23.2592993 12.5934901,23.257841 L12.5934901,23.257841 Z M12.8583906,23.1452862 L12.8445485,23.1473072 L12.6598443,23.2396597 L12.6498822,23.2499052 L12.6498822,23.2499052 L12.6471943,23.2611114 L12.6650943,23.6906389 L12.6699349,23.7034178 L12.6699349,23.7034178 L12.678386,23.7104931 L12.8793402,23.8032389 C12.8914285,23.8068999 12.9022333,23.8029875 12.9078286,23.7952264 L12.9118235,23.7811639 L12.8776777,23.1665331 C12.8752882,23.1545897 12.8674102,23.1470016 12.8583906,23.1452862 L12.8583906,23.1452862 Z M12.1430473,23.1473072 C12.1332178,23.1423925 12.1221763,23.1452606 12.1156365,23.1525954 L12.1099173,23.1665331 L12.0757714,23.7811639 C12.0751323,23.7926639 12.0828099,23.8018602 12.0926481,23.8045676 L12.108256,23.8032389 L12.3092106,23.7104931 L12.3186497,23.7024347 L12.3186497,23.7024347 L12.3225043,23.6906389 L12.340401,23.2611114 L12.337245,23.2485176 L12.337245,23.2485176 L12.3277531,23.2396597 L12.1430473,23.1473072 Z" id="MingCute" fill-rule="nonzero"></path>
                <path d="M6,13 C8.20914,13 10,14.7909 10,17 C10,19.2091 8.20914,21 6,21 C3.79086,21 2,19.2091 2,17 C2,14.7909 3.79086,13 6,13 Z M18,13 C20.2091,13 22,14.7909 22,17 C22,19.2091 20.2091,21 18,21 C15.7909,21 14,19.2091 14,17 C14,14.7909 15.7909,13 18,13 Z M14.0379,7.62366 L16.4142,10 L18,10 C18.5523,10 19,10.4477 19,11 C19,11.5523 18.5523,12 18,12 L16.2071,12 C15.8093,12 15.4278,11.842 15.1464,11.5607 L13.9544,10.3686 L11.3218,12.6722 L12.6389,14.2088 C12.8719,14.4806 13,14.8269 13,15.185 L13,19 C13,19.5523 12.5523,20 12,20 C11.4477,20 11,19.5523 11,19 L11,15.3699 L8.56284,12.5266 C8.02759,11.9021 8.095,10.9631 8.71396,10.4215 L11.9895,7.55546 C12.5838,7.03544 13.4795,7.06526 14.0379,7.62366 Z M6,15 C4.89543,15 4,15.8954 4,17 C4,18.1046 4.89543,19 6,19 C7.10457,19 8,18.1046 8,17 C8,15.8954 7.10457,15 6,15 Z M18,15 C16.8954,15 16,15.8954 16,17 C16,18.1046 16.8954,19 18,19 C19.1046,19 20,18.1046 20,17 C20,15.8954 19.1046,15 18,15 Z M16,3 C17.1046,3 18,3.89543 18,5 C18,6.10457 17.1046,7 16,7 C14.8954,7 14,6.10457 14,5 C14,3.89543 14.8954,3 16,3 Z" id="形状" fill="#09244B"></path>
            </g>
        </g>
    </g>
</svg>

<svg xmlns="http://www.w3.org/2000/svg" width="24" height="24"><g fill="none" fill-rule="nonzero"><path d="M24 0v24H0V0h24ZM12.593 23.258l-.011.002-.071.035-.02.004-.014-.004-.071-.035c-.01-.004-.019-.001-.024.005l-.004.01-.017.428.005.02.01.013.104.074.015.004.012-.004.104-.074.012-.016.004-.017-.017-.427c-.002-.01-.009-.017-.017-.018Zm.265-.113-.013.002-.185.093-.01.01-.003.011.018.43.005.012.008.007.201.093c.012.004.023 0 .029-.008l.004-.014-.034-.614c-.003-.012-.01-.02-.02-.022Zm-.715.002a.023.023 0 0 0-.027.006l-.006.014-.034.614c0 .012.007.02.017.024l.015-.002.201-.093.01-.008.004-.011.017-.43-.003-.012-.01-.01-.184-.092Z"/><path fill="#09244B" d="M6 13a4 4 0 1 1 0 8 4 4 0 0 1 0-8Zm12 0a4 4 0 1 1 0 8 4 4 0 0 1 0-8Zm-3.962-5.376L16.414 10H18a1 1 0 1 1 0 2h-1.793a1.5 1.5 0 0 1-1.06-.44l-1.193-1.191-2.632 2.303 1.317 1.537a1.5 1.5 0 0 1 .361.976V19a1 1 0 1 1-2 0v-3.63l-2.437-2.843a1.5 1.5 0 0 1 .151-2.105l3.275-2.867a1.5 1.5 0 0 1 2.049.069ZM6 15a2 2 0 1 0 0 4 2 2 0 0 0 0-4Zm12 0a2 2 0 1 0 0 4 2 2 0 0 0 0-4ZM16 3a2 2 0 1 1 0 4 2 2 0 0 1 0-4Z"/></g></svg>
